X:168
T:Repeal of the Union (reel), The  
B:CRE1.129 (Aisghairm na hAontachta)
F:file ID: cre.1/168repeal
S:John Potts
M:C
L:1/8
Q:180
R:reel
K:D
ADD2 A3G|E2=cE dEcE|ADD2 A3G|E2=cE ED (3EFG|
ADD2 ADD2|GE=cE dEcE|ADD2 A3G|E2=cE EDD2||
Adde fdec|AB=cA dBc2|Adde fd=cA|GE=cE EDD2|
Adde fdec|AB=cd efg2|afge d2ed|=cAGE EDD2||

%%%

